!!!OTL: 1562. Beim Flachsribben.
!!!ODT: 1839
!!!ARE: Europa, Mitteleuropa, Deutschland, Westfalen
!!!SCT: E1562
!!!TXL: @@DE
!!!YEM: Copyright 1995, estate of Helmut Schaffrath.
**kern	**text
*ICvox	*
*M2/4	*
*k[f#]	*
*G:	*
!LO:TX:a:t=Lebhaft.	!
!LO:TX:a:t=Weſtfäliſch vor 1839.	!
{8g	Jch
=1	=1
8f#	gieng
8e	ein-
8f#	-mal
8g	in
=2	=2
4a	Gar-
8f#	-ten,
8d	ho-
=3	=3
4g	-ho!
8r}	.
{8g	den
=4	=4
8f#	Kohl,
8e	den
8f#	wollt
8g	ich
=5	=5
4a	war-
8f#	-ten.
8d	ho-
=6	=6
4g	-ho!
8r}	.
{8g	Da
=7	=7
8b	ſtan-
8b	-den
8b	da
8b	ʒwei
=8	=8
8.cc	Lie-
16dd	-be-
8ccL	-lein
8bJ}	.
=9	=9
{8a	un-
8a	-ter
8a	ei-
8a	-nem
=10	=10
8.dd	Bäu-
16ee	-me-
8dd	-lein.
8r}	.
=11	=11
{8g	Wollt
8g	ihr
8g	mit,
8g	ſo
=12	=12
4a	kommt,
8r}	.
{8dd	und
=13	=13
8b/	wollt
8g	ihr
8a	mit,
8f#	ſo
=14	=14
4g	kommt!
8r}	.
==	==
!!!AGN: Staende -, Bauern - Lied, Flachsbrechen, bei der Arbeit
!!!ONB: ESAC (Essen Associative Code) Database: ERK3
!!!AMT: simple duple
!!!AIN: vox
!!!EED: Helmut Schaffrath
!!!EEV: 1.0
!!!GTL: Staendelieder (Berufslieder). 6. Bauernlieder (von und gegen Bauern).
!!!URL-scan: https://rosdok.uni-rostock.de/mcrviewer/recordIdentifier/rosdok_ppn745177999/iview2/phys_0401.iview2?x=-128.77276441889285&y=98.43105505569838&scale=0.5870222003877487&rotation=0&layout=singlePageLayout
!!!ENC: Anna Maria Matuszewska
!!!EEV: 2025/03/01
*-	*-
